X:1
T:Junkin, 11.11.11.11
T:George Coles Stebbins, before 1919
T:Junkin, 11.11.11.11
T:Public Domain
C:George Coles Stebbins, before 1919
Z:Public Domain
%%score ( 1 2 ) ( 3 4 )
L:1/8
M:4/4
K:Eb
V:1 treble 
V:2 treble 
V:3 bass 
V:4 bass 
V:1
 [EG]2 [EB]2 [EA]2 [EG]2 | [DG]4 [DF]4 | [DA]2 [B,D]2 [B,E]2 [DF]2 | [EG]6 z2 | %4
 [EB]2 [Ge]2 [Gd]2 [=Ac]2 | [GB]4 [=Ec]4 | [Fd]2 [FB]2 [EB]2 [E=A]2 | [DB]6 z2 | %8
 [FB]2 [FB]2 [Fc]2 [DB]2 | [Ee]4 [GB]4 | [GB]2 [GB]2 [Gc]2 [=EG]2 | [FA]6 z2 | %12
 [Fc]2 [Fc]2 [Fd]2 [Dc]2 | (B2 G2) (E2 F2) | [EG]2 [EA]2 (C2 D)E | E8 |] %16
V:2
 x8 | x8 | x8 | x8 | x8 | x8 | x8 | x8 | x8 | x8 | x8 | x8 | x8 | E4 E4 | x4 F3 E | E8 |] %16
V:3
 [E,B,]2 [E,G,]2 [E,C]2 [E,B,]2 | [B,,B,]4 [B,,A,]4 | [B,,F,]2 [A,,F,]2 [G,,B,]2 [B,,B,]2 | %3
 [E,B,]6 z2 | [E,G,]2 [C,C]2 [D,B,]2 [^F,D]2 | [G,D]4 [G,B,]4 | [F,B,]2 [F,D]2 [F,C]2 [F,C]2 | %7
 [B,,D]6 z2 | [A,D]2 [A,D]2 [A,D]2 [A,B,]2 | [G,B,]4 [E,E]4 | [E,_D]2 [E,D]2 [=E,C]2 [C,C]2 | %11
 [F,C]6 z2 | [F,A,]2 [F,A,]2 [B,,B,]2 [B,,A,]2 | (G,2 B,2) (C2 =A,2) | %14
 [B,,B,]2 [B,,C]2 [B,,A,]3 [E,G,] | [E,G,]8 |] %16
V:4
 x8 | x8 | x8 | x8 | x8 | x8 | x8 | x8 | x8 | x8 | x8 | x8 | x8 | E,4 C,4 | x8 | x8 |] %16

